ix/wallet_bold.svg

<svg viewBox="0 0 24 24" fill="none" xmlns="http://www.w3.org/2000/svg" height="1em" width="1em">
  <path d="M21.4499 13.6406V14.6406C21.4499 14.9106 21.2399 15.1306 20.9599 15.1406H19.4999C18.9699 15.1406 18.4899 14.7506 18.4499 14.2306C18.4199 13.9206 18.5399 13.6306 18.7399 13.4306C18.9199 13.2406 19.1699 13.1406 19.4399 13.1406H20.9499C21.2399 13.1506 21.4499 13.3706 21.4499 13.6406Z" fill="#292D32"/>
  <path d="M17.9892 12.6906C17.4892 13.1806 17.2492 13.9106 17.4492 14.6706C17.7092 15.6006 18.6192 16.1906 19.5792 16.1906H20.4492C20.9992 16.1906 21.4492 16.6406 21.4492 17.1906V17.3806C21.4492 19.4506 19.7592 21.1406 17.6892 21.1406H6.20922C4.13922 21.1406 2.44922 19.4506 2.44922 17.3806V10.6506C2.44922 9.42062 3.03922 8.33063 3.94922 7.65063C4.57922 7.17063 5.35922 6.89062 6.20922 6.89062H17.6892C19.7592 6.89062 21.4492 8.58062 21.4492 10.6506V11.0906C21.4492 11.6406 20.9992 12.0906 20.4492 12.0906H19.4292C18.8692 12.0906 18.3592 12.3106 17.9892 12.6906Z" fill="#292D32"/>
  <path d="M16.1991 4.82C16.4691 5.09 16.2391 5.51 15.8591 5.51L8.17908 5.5C7.73908 5.5 7.50908 4.96 7.82908 4.65L9.44908 3.02C10.8191 1.66 13.0391 1.66 14.4091 3.02L16.1591 4.79C16.1691 4.8 16.1891 4.81 16.1991 4.82Z" fill="#292D32"/>
</svg>

<svg viewBox="0 0 24 24" fill="none" xmlns="http://www.w3.org/2000/svg" height="1em" width="1em">
  <path d="M21.45 13.64v1a.5.5 0 0 1-.49.5H19.5c-.53 0-1.01-.39-1.05-.91-.03-.31.09-.6.29-.8a.95.95 0 0 1 .7-.29h1.51c.29.01.5.23.5.5Z" fill="#292D32"/>
  <path d="M17.99 12.69c-.5.49-.74 1.22-.54 1.98.26.93 1.17 1.52 2.13 1.52h.87c.55 0 1 .45 1 1v.19c0 2.07-1.69 3.76-3.76 3.76H6.21c-2.07 0-3.76-1.69-3.76-3.76v-6.73c0-1.23.59-2.32 1.5-3 .63-.48 1.41-.76 2.26-.76h11.48c2.07 0 3.76 1.69 3.76 3.76v.44c0 .55-.45 1-1 1h-1.02c-.56 0-1.07.22-1.44.6ZM16.2 4.82c.27.27.04.69-.34.69L8.18 5.5c-.44 0-.67-.54-.35-.85l1.62-1.63a3.525 3.525 0 0 1 4.96 0l1.75 1.77c.01.01.03.02.04.03Z" fill="#292D32"/>
</svg>
